src/assets/bold/lm-logo-agreement-gen-bold.svg

<svg width="24" height="24" viewBox="0 0 24 24" fill="none" xmlns="http://www.w3.org/2000/svg" fill="currentColor">
<path d="M12.687 2.548C12.6135 2.22724 12.328 1.99988 11.9989 2C11.6698 2.00012 11.3845 2.2277 11.3113 2.54852C11.2425 2.84976 11.1612 3.14721 11.069 3.44093C9.92938 7.06408 7.06747 9.92657 3.44426 11.0697C3.1639 11.1573 2.88221 11.2348 2.59631 11.3011C2.25851 11.3536 2 11.6458 2 11.9983V21.2943C2 21.684 2.31593 22 2.70565 22H11.9927C11.9955 22 11.9983 22 12.0011 22C12.0037 22 12.0063 22 12.0089 22H21.2944C21.6841 22 22 21.684 22 21.2943V12.0004V11.9983C22 11.6458 21.7415 11.3536 21.4037 11.3011C21.1177 11.2348 20.8359 11.1573 20.5554 11.0696C16.6394 9.83597 13.6134 6.58977 12.687 2.548ZM20.5887 12.92V20.5887H12.9218C12.9248 20.5788 12.9279 20.5689 12.931 20.5591C14.0707 16.9357 16.9328 14.0718 20.5557 12.9303C20.5667 12.9269 20.5777 12.9234 20.5887 12.92ZM11.0798 20.5887H3.41129V12.92C3.42241 12.9235 3.43353 12.9269 3.44465 12.9304C7.07789 14.075 9.94482 16.9504 11.0798 20.5887ZM5.00105 11.9998C8.15228 10.6735 10.6751 8.15054 11.9995 4.9989C13.3248 8.15052 15.8474 10.6746 18.9986 12C15.8475 13.3255 13.3249 15.8494 12.0007 19.0008C10.6753 15.8484 8.15243 13.325 5.00105 11.9998Z" fill="black"/>
</svg>

<svg xmlns="http://www.w3.org/2000/svg" width="24" height="24" fill="currentColor" viewBox="0 0 24 24">
  <path d="M12.687 2.548a.706.706 0 0 0-1.376 0 11.707 11.707 0 0 1-7.867 8.521c-.28.088-.562.166-.848.232a.706.706 0 0 0-.596.697v9.296c0 .39.316.706.706.706h18.588c.39 0 .706-.316.706-.706v-9.296a.706.706 0 0 0-.596-.697 11.702 11.702 0 0 1-8.717-8.753Zm7.902 10.372v7.669h-7.667l.009-.03a11.704 11.704 0 0 1 7.625-7.629l.033-.01Zm-9.51 7.669H3.412V12.92l.034.01a11.705 11.705 0 0 1 7.635 7.659Zm-6.078-8.59A13.132 13.132 0 0 0 12 5a13.134 13.134 0 0 0 7 7 13.13 13.13 0 0 0-7 7 13.131 13.131 0 0 0-7-7Z"/>
</svg>
